X: 2
T:File la laine
C:Paroles et musique: Robert Marcy 
Z:Transcrit et/ou corrig par Michel BELLON - 2007-09-18
Z:Pour toute observation mailto:galouvielle@free.fr
M:4/4
L:1/4
K:Bm
Bc | dcBA BBBc | dcBA B2BB | ddcc ddde |
dcBA B2ee |: eBee eBBd |1 cBAc B2ee :|2 BAGc B2z2 ||
Z:Transcrit et/ou corrig par Michel BELLON - 2007-09-18
Z:Pour toute observation mailto:galouvielle@free.fr
M:3/4
d2>e2c2 | d4B2 | c2>^A2f2 | B6 | d2>e2A2 | f4d2 | e2>A2e2 | d6 |
g2>a2g2 | f4f2 | g2>a2g2 | f6 | e2>f2e2 | d2c2B2 | c2F2d2 | B6- | B4z2 |]
%%footer $D   Galouvielle-MBe 2007 \nBranle double (--)
